X:1
T:The Two Sisters
M:6/8
L:1/8
K:F
 D| DGG G2 G| B3/2- A/2- B D3| F3 E/2- C3/2 D| DGG G2 G| B3/2- A/2- B G2 c|\
 d2 d c/2- B3/2 c| d3- d2 c| ddd d2 d| f3/2- e/2- f d2 A|B-A GG-B A|\
 G2 GF/2-D/2 D2| DGG d3| AA=Bc-B A| G3- G2||
